X:1
T:Te Deum
T:Charles Gounod
T:1. Prélude
T:Te Deum
T:Copyright © 2013 by the Choral Public Domain Library (http://www.cpdl.org)
C:Charles Gounod
Z:1. Prélude
Z:Copyright © 2013 by the Choral Public Domain Library (http://www.cpdl.org)
%%score { ( 1 3 5 ) | ( 2 4 6 ) } 7
L:1/8
Q:1/4=120
M:4/4
K:G
V:1 treble nm="Grand orgue"
V:3 treble 
V:5 treble 
V:2 bass 
V:4 bass 
V:6 bass 
V:7 bass nm="Pédales"
V:1
"^Moderato maestoso" z4 B,4 | A,4 [B,D]4 | C8 | B,2 A,2 B,2 ^C2 | F4 A4 | [EG]4 [Fc]4 | B4 d4 | %7
 c4 =f4 | e2 g2 c2 e2 | A2 c2 f2 e2 | d2 f2 B2 d2 | G2 B2 e2 d2 | c2 e2 A2 c2 | F2 A2 d2 c2 | %14
 B6 (A2 | E2) =FE D4- | D2 ED C4- | C2 DC B,4- | B,2 CB, A2 G2 | ^F8 | x8 |"^rit." x8 | [B,GB]8- | %23
 [B,GB]2 z2 z4 |] %24
V:2
 G,,4 G,4- | G,4 =F,4 | E,2 D,2 C,2 E,2 | G,2 ^F,2 E,4 | D,2 A,2 G,2 F,2 | B,2 =C2 B,2 A,2 | %6
 G,2 D2 C2 B,2 | A,4 E,2 D,2 | C,2 E,2 A,2 G,2 | ^F,2 E,2 D,2 C,2 | B,,2 D,2 G,2 F,2 | %11
 G,2 F,2 C,2 B,,2 | A,,2 C,2 F,2 [E,G,]2 | [D,F,]2 [C,E,]2 B,,2 A,,2 | G,6 A,G, | =F,6 G,F, | %16
 E,6 =F,E, | D,6 E,D, | C,6 D,E, | D,2 C2 B,2 A,2 | x8 | x8 | x8 | x8 |] %24
V:3
 x8 | x8 | x4 E4 | D4 G4 | D8 | x8 | G8- | G8- | G4 !courtesy!^F2 E2 | F2 G2 F4- | F4 E2 D2 | %11
 E2 F2 E4- | E4 D2 C2 | D2 E2 D4- | D2 GF E4 | A6 BA | G6 A2 | =F6 GF | E4 A,4- | A,2 E2 D2 C2- | %20
 C2 B,2 C2 D2- | D2 B,2 C4 | x8 | x8 |] %24
V:4
 x8 | x8 | x8 | x8 | D,8- | D,8 | G,8- | G,2 =F,2 B,4 | C6 B,2 | A,2 G,2 A,4 | B,6 A,2 | %11
 E,2 D,2 G,4 | A,4 x4 | x4 F,4 | G,,8- | G,,8- | G,,8- | G,,8- | G,,8 | D,8- | [D,G,]4 =F,4 | %21
 E,4 [_E,A,]4 | [D,G,]8- | [D,G,]2 z2 x4 |] %24
V:5
 x8 | x8 | x8 | x8 | x8 | x8 | x8 | x8 | x4 F2 E2 | x8 | x8 | x8 | x8 | x8 | x8 | x8 | x8 | x8 | %18
 x8 | F8 | G8- | G4 x4 | x8 | x8 |] %24
V:6
 x8 | x8 | x8 | x8 | x8 | x8 | x8 | x8 | x8 | x8 | x8 | x8 | x8 | x8 | x8 | x8 | x8 | x8 | x8 | %19
 x8 | G,,8- | G,,8- | G,,8- | G,,2 z2 z4 |] %24
V:7
 G,,8-"^(Grand jeu)" | G,,8- | G,,8- | G,,8- | G,,8- | G,,8- | G,,8- | G,,8- | G,,8- | G,,8- | %10
 G,,8- | G,,8- | G,,8- | G,,8- | G,,8- | G,,8- | G,,8- | G,,8- | G,,8- | G,,8- | G,,8- | G,,8- | %22
 G,,8- | G,,2 z2 z4 |] %24

